X:675
T:Bonnie Kate
T:Bonny Kate
O:england
R:reel
N:See also #514
M:C|
K:D
A2dB ABAF|DFAF ~E3G|FDFA BG (3Bcd|1 cABc d2dB:|2 cABc defg||
|:a2fd (3fga fd|fafd (3Bcd ef|~g3f gbag|1 fgec defg:|2 fgef d2dB||
